!!!SOCIAL_FUNCTION:	dream songs
!!!PDT:	1909
!!!OTL: No_113_Song_of_the_Thunders.krn
!!!REG: Great_Lakes
!!!LANG: Non-Tone
!!!LING_GROUP: Algonquin
**kern	**kern
*staff2	*staff1
=1-	=1-
*clefF4	*clefF4
*k[b-e-]	*k[b-e-]
*M2/4	*M2/4
12GG^/	8f\L
12r	.
.	8f\J
12GG/	.
12GG^/	[4f\
12r	.
12GG/	.
=2	=2
2r	4f\]
.	4d\
=3	=3
2r	8f\L
.	8d\J
.	16f\LL
.	16d\
.	16c\
.	[16B-\JJ
=4||	=4||
*M3/4	*M3/4
2.r	8.B-\L]
.	16B-\Jk
.	4.B-\
.	8B-\
=5	=5
2.r	2.B-\
=6||	=6||
*M2/4	*M2/4
2r	8f\L
.	8f\J
.	[4f\
=7	=7
2r	4f\]
.	4d\
=8	=8
2r	8f\L
.	8d\J
.	12f\L
.	12d\
.	12c\J
=9||	=9||
*M3/4	*M3/4
2.r	8.B-\L
.	16B-\Jk
.	4.B-\
.	8B-\
=10	=10
2.r	2.B-\
=11	=11
2.r	4f\
.	8f\L
.	8d\J
.	8f\L
.	8d\J
=12||	=12||
*M2/4	*M2/4
2r	4B-\
.	8B-\L
.	8B-\J
=13	=13
2r	12G\L
.	12B-\
.	12B-\J
.	12B-\L
.	12B-\
.	12G\J
=14	=14
2r	4F\
.	8F\L
.	8F\J
=15||	=15||
*M3/4	*M3/4
2.r	2.F\
=16||	=16||
*M2/4	*M2/4
2r	8B-\L
.	8B-\J
.	8B-\L
.	(16.G\L
.	32B-\JJk)
=17	=17
2r	4F\
.	8.F\L
.	16B-\Jk
=18	=18
2r	4F\
.	4D\
=19	=19
2r	2F\
=20	=20
2r	4D\
.	16F\LK
.	8.D\J
=21	=21
2r	8.BB-/L
.	16BB-/Jk
.	4BB-/
=22	=22
2r	2BB-/
==	==
*-	*-
